X:21073 
T:HUMORS OF AYLE HOUSE, The 
B:DMI.0261
Z:Nordberg/Black
R:jig
%Q:1/4=160
M:6/8
L:1/8
K:G
G|FDF E2d|cAA A2G|FDE F2d|cAF GAG|
FDE F2d|cAB cde|fef dfd|cAF G2:|
B|cAA fed|cAG A2B|cAA fed|cAF G2B|
cAA fed|cAB cde|fed dfd|cAF G2:|

%%%

